svgs/light/building-ngo.svg

<svg xmlns="http://www.w3.org/2000/svg" viewBox="0 0 384 512"><!--! Font Awesome Pro 6.4.0 by @fontawesome - https://fontawesome.com License - https://fontawesome.com/license (Commercial License) Copyright 2023 Fonticons, Inc. --><path d="M320 32H64c-11.8 0-22.2 6.4-27.7 16H2C9.1 20.4 34.2 0 64 0H320c29.8 0 54.9 20.4 62 48H347.7c-5.5-9.6-15.9-16-27.7-16zM0 240H32V448c0 17.7 14.3 32 32 32h64V416c0-35.3 28.7-64 64-64s64 28.7 64 64v64h64c17.7 0 32-14.3 32-32V240h32V448c0 35.3-28.7 64-64 64H256 224 160 128 64c-35.3 0-64-28.7-64-64V240zM192 384c-17.7 0-32 14.3-32 32v64h64V416c0-17.7-14.3-32-32-32zM168 80h48c8.8 0 16 7.2 16 16s-7.2 16-16 16H184v64h16V160c0-8.8 7.2-16 16-16s16 7.2 16 16v24c0 13.3-10.7 24-24 24H176c-13.3 0-24-10.7-24-24V96c0-8.8 7.2-16 16-16zm136 32c-8.8 0-16 7.2-16 16v32c0 8.8 7.2 16 16 16s16-7.2 16-16V128c0-8.8-7.2-16-16-16zm-48 16c0-26.5 21.5-48 48-48s48 21.5 48 48v32c0 26.5-21.5 48-48 48s-48-21.5-48-48V128zM61.3 87.1l34.7 52V96c0-8.8 7.2-16 16-16s16 7.2 16 16v96c0 7.1-4.6 13.3-11.4 15.3s-14-.6-17.9-6.4L64 148.8V192c0 8.8-7.2 16-16 16s-16-7.2-16-16V96c0-7.1 4.6-13.3 11.4-15.3s14 .6 17.9 6.4zM208 264c0-13.3 10.7-24 24-24h48c13.3 0 24 10.7 24 24v48c0 13.3-10.7 24-24 24H232c-13.3 0-24-10.7-24-24V264zm32 8v32h32V272H240zM104 240h48c13.3 0 24 10.7 24 24v48c0 13.3-10.7 24-24 24H104c-13.3 0-24-10.7-24-24V264c0-13.3 10.7-24 24-24zm8 64h32V272H112v32z"/></svg>

<svg xmlns="http://www.w3.org/2000/svg" viewBox="0 0 384 512"><!--! Font Awesome Pro 6.3.0 by @fontawesome - https://fontawesome.com License - https://fontawesome.com/license (Commercial License) Copyright 2023 Fonticons, Inc. --><path d="M320 32H64C52.16 32 41.81 38.44 36.28 48H2.016C9.121 20.4 34.18 0 64 0H320C349.8 0 374.9 20.4 381.1 48H347.7C342.2 38.44 331.8 32 320 32zM0 240H32V448C32 465.7 46.33 480 64 480H128V416C128 380.7 156.7 352 192 352C227.3 352 256 380.7 256 416V480H320C337.7 480 352 465.7 352 448V240H384V448C384 483.3 355.3 512 320 512H64C28.65 512 0 483.3 0 448V240zM160 416V480H224V416C224 398.3 209.7 384 192 384C174.3 384 160 398.3 160 416zM216 80C224.8 80 232 87.16 232 96C232 104.8 224.8 112 216 112H184V176H200V160C200 151.2 207.2 144 216 144C224.8 144 232 151.2 232 160V184C232 197.3 221.3 208 208 208H176C162.7 208 152 197.3 152 184V96C152 87.16 159.2 80 168 80H216zM256 128C256 101.5 277.5 80 304 80C330.5 80 352 101.5 352 128V160C352 186.5 330.5 208 304 208C277.5 208 256 186.5 256 160V128zM304 112C295.2 112 288 119.2 288 128V160C288 168.8 295.2 176 304 176C312.8 176 320 168.8 320 160V128C320 119.2 312.8 112 304 112zM96 139.2V96C96 87.16 103.2 80 112 80C120.8 80 128 87.16 128 96V192C128 199.1 123.4 205.3 116.6 207.3C109.9 209.4 102.6 206.7 98.69 200.9L64 148.8V192C64 200.8 56.84 208 48 208C39.16 208 32 200.8 32 192V96C32 88.95 36.62 82.73 43.36 80.69C50.11 78.64 57.4 81.26 61.31 87.12L96 139.2zM208 264C208 250.7 218.7 240 232 240H280C293.3 240 304 250.7 304 264V312C304 325.3 293.3 336 280 336H232C218.7 336 208 325.3 208 312V264zM240 272V304H272V272H240zM152 240C165.3 240 176 250.7 176 264V312C176 325.3 165.3 336 152 336H104C90.75 336 80 325.3 80 312V264C80 250.7 90.75 240 104 240H152zM144 304V272H112V304H144z"/></svg>
